X: 1
T:F\o{}ringerdans (sonderh\o{}ning)
R:Sonderh\o{}ning
O:Denmark
M:2/4
L:1/8
A:Fan\o{}
K:D
df    f/a/f/d/ | g2 ef/e/ | \
dd/d/ dd/d/ | e/d/c/B/ A2|\
df a>a | bg e2 | dd ce | d2d2 :|
|:ee/f/ ee/f/ | e/d/c/B/ AA | \
ff/g/ ff/g/ | ff/g/ ff/f/ |\
dd ff | age2 | dd c/d/e/c/ | d2 d2 :|
